icons/modern/copyright.svg

<svg width="32" height="32" viewBox="0 0 32 32" fill="none" xmlns="http://www.w3.org/2000/svg">
<g filter="url(#filter0_ii_18590_2133)">
<path d="M18.4177 19.3956C18.6377 19.2656 18.8777 19.1756 19.1377 19.1756C20.4477 19.1756 20.9777 20.9156 19.8377 21.6056C18.7877 22.2456 17.5577 22.6256 16.2377 22.6256H15.9477C12.0077 22.6256 8.81774 19.2856 9.08774 15.2756C9.33774 11.6256 12.5377 8.86563 16.1977 8.86563H16.2477C17.3977 8.86563 18.4677 9.14563 19.4177 9.64563C20.6477 10.2856 20.1877 12.1456 18.8077 12.1456C18.5877 12.1456 18.3777 12.0756 18.1777 11.9756C17.5977 11.6856 16.9477 11.5056 16.2577 11.5056H15.9677C13.4877 11.5056 11.4977 13.6456 11.7477 16.1756C11.9577 18.3756 13.9377 19.9956 16.1577 19.9956H16.2577C17.0477 19.9956 17.7877 19.7756 18.4177 19.3956Z" fill="url(#paint0_linear_18590_2133)"/>
</g>
<g filter="url(#filter1_iiii_18590_2133)">
<path d="M1.7583 15.8556C1.7583 23.5756 8.0383 29.8556 15.7583 29.8556C23.4783 29.8556 29.7583 23.5756 29.7583 15.8556C29.7583 8.13562 23.4783 1.85562 15.7583 1.85562C8.0383 1.85562 1.7583 8.13562 1.7583 15.8556ZM4.7583 15.8556C4.7583 9.78562 9.6883 4.85562 15.7583 4.85562C21.8183 4.85562 26.7583 9.78562 26.7583 15.8556C26.7583 21.9256 21.8283 26.8556 15.7583 26.8556C9.6883 26.8556 4.7583 21.9156 4.7583 15.8556Z" fill="url(#paint1_linear_18590_2133)"/>
</g>
<g filter="url(#filter2_f_18590_2133)">
<path d="M19.2332 10.4065C17.5525 9.6936 13.6322 9.1783 11.3967 12.82C8.60228 17.3721 13.7659 23.4975 19.2332 20.1369" stroke="url(#paint2_linear_18590_2133)" stroke-width="0.75" stroke-linecap="round"/>
</g>
<defs>
<filter id="filter0_ii_18590_2133" x="9.07178" y="8.36563" width="11.8909" height="14.26" filterUnits="userSpaceOnUse" color-interpolation-filters="sRGB">
<feFlood flood-opacity="0" result="BackgroundImageFix"/>
<feBlend mode="normal" in="SourceGraphic" in2="BackgroundImageFix" result="shape"/>
<feColorMatrix in="SourceAlpha" type="matrix" values="0 0 0 0 0 0 0 0 0 0 0 0 0 0 0 0 0 0 127 0" result="hardAlpha"/>
<feOffset dx="0.5"/>
<feGaussianBlur stdDeviation="0.375"/>
<feComposite in2="hardAlpha" operator="arithmetic" k2="-1" k3="1"/>
<feColorMatrix type="matrix" values="0 0 0 0 0.223529 0 0 0 0 0.215686 0 0 0 0 0.239216 0 0 0 1 0"/>
<feBlend mode="normal" in2="shape" result="effect1_innerShadow_18590_2133"/>
<feColorMatrix in="SourceAlpha" type="matrix" values="0 0 0 0 0 0 0 0 0 0 0 0 0 0 0 0 0 0 127 0" result="hardAlpha"/>
<feOffset dy="-0.5"/>
<feGaussianBlur stdDeviation="0.375"/>
<feComposite in2="hardAlpha" operator="arithmetic" k2="-1" k3="1"/>
<feColorMatrix type="matrix" values="0 0 0 0 0.223529 0 0 0 0 0.215686 0 0 0 0 0.239216 0 0 0 1 0"/>
<feBlend mode="normal" in2="effect1_innerShadow_18590_2133" result="effect2_innerShadow_18590_2133"/>
</filter>
<filter id="filter1_iiii_18590_2133" x="1.1083" y="1.35562" width="29.3" height="29.15" filterUnits="userSpaceOnUse" color-interpolation-filters="sRGB">
<feFlood flood-opacity="0" result="BackgroundImageFix"/>
<feBlend mode="normal" in="SourceGraphic" in2="BackgroundImageFix" result="shape"/>
<feColorMatrix in="SourceAlpha" type="matrix" values="0 0 0 0 0 0 0 0 0 0 0 0 0 0 0 0 0 0 127 0" result="hardAlpha"/>
<feOffset dx="-0.65" dy="0.65"/>
<feGaussianBlur stdDeviation="0.375"/>
<feComposite in2="hardAlpha" operator="arithmetic" k2="-1" k3="1"/>
<feColorMatrix type="matrix" values="0 0 0 0 0.486275 0 0 0 0 0.439216 0 0 0 0 0.537255 0 0 0 1 0"/>
<feBlend mode="normal" in2="shape" result="effect1_innerShadow_18590_2133"/>
<feColorMatrix in="SourceAlpha" type="matrix" values="0 0 0 0 0 0 0 0 0 0 0 0 0 0 0 0 0 0 127 0" result="hardAlpha"/>
<feOffset dy="-0.5"/>
<feGaussianBlur stdDeviation="0.375"/>
<feComposite in2="hardAlpha" operator="arithmetic" k2="-1" k3="1"/>
<feColorMatrix type="matrix" values="0 0 0 0 0.207843 0 0 0 0 0.113725 0 0 0 0 0.286275 0 0 0 1 0"/>
<feBlend mode="normal" in2="effect1_innerShadow_18590_2133" result="effect2_innerShadow_18590_2133"/>
<feColorMatrix in="SourceAlpha" type="matrix" values="0 0 0 0 0 0 0 0 0 0 0 0 0 0 0 0 0 0 127 0" result="hardAlpha"/>
<feOffset dy="0.5"/>
<feGaussianBlur stdDeviation="0.375"/>
<feComposite in2="hardAlpha" operator="arithmetic" k2="-1" k3="1"/>
<feColorMatrix type="matrix" values="0 0 0 0 0.298039 0 0 0 0 0.247059 0 0 0 0 0.34902 0 0 0 1 0"/>
<feBlend mode="normal" in2="effect2_innerShadow_18590_2133" result="effect3_innerShadow_18590_2133"/>
<feColorMatrix in="SourceAlpha" type="matrix" values="0 0 0 0 0 0 0 0 0 0 0 0 0 0 0 0 0 0 127 0" result="hardAlpha"/>
<feOffset dx="0.65"/>
<feGaussianBlur stdDeviation="0.5"/>
<feComposite in2="hardAlpha" operator="arithmetic" k2="-1" k3="1"/>
<feColorMatrix type="matrix" values="0 0 0 0 0.176471 0 0 0 0 0.156863 0 0 0 0 0.196078 0 0 0 1 0"/>
<feBlend mode="normal" in2="effect3_innerShadow_18590_2133" result="effect4_innerShadow_18590_2133"/>
</filter>
<filter id="filter2_f_18590_2133" x="9.58755" y="8.87159" width="10.6707" height="13.257" filterUnits="userSpaceOnUse" color-interpolation-filters="sRGB">
<feFlood flood-opacity="0" result="BackgroundImageFix"/>
<feBlend mode="normal" in="SourceGraphic" in2="BackgroundImageFix" result="shape"/>
<feGaussianBlur stdDeviation="0.325" result="effect1_foregroundBlur_18590_2133"/>
</filter>
<linearGradient id="paint0_linear_18590_2133" x1="14.7673" y1="8.86563" x2="14.7673" y2="22.6256" gradientUnits="userSpaceOnUse">
<stop stop-color="#564B61"/>
<stop offset="1" stop-color="#3B2C49"/>
</linearGradient>
<linearGradient id="paint1_linear_18590_2133" x1="15.4458" y1="2.66812" x2="15.7583" y2="29.8556" gradientUnits="userSpaceOnUse">
<stop stop-color="#5F4F70"/>
<stop offset="1" stop-color="#474050"/>
</linearGradient>
<linearGradient id="paint2_linear_18590_2133" x1="15.0396" y1="9.89661" x2="15.0396" y2="20.9806" gradientUnits="userSpaceOnUse">
<stop stop-color="#635A6C"/>
<stop offset="1" stop-color="#646169"/>
</linearGradient>
</defs>
</svg>

<svg width="32" height="32" fill="none" xmlns="http://www.w3.org/2000/svg"><g filter="url(#a)"><path d="M18.418 19.396c.22-.13.46-.22.72-.22 1.31 0 1.84 1.74.7 2.43a6.897 6.897 0 0 1-3.6 1.02h-.29c-3.94 0-7.13-3.34-6.86-7.35.25-3.65 3.45-6.41 7.11-6.41h.05c1.15 0 2.22.28 3.17.78 1.23.64.77 2.5-.61 2.5-.22 0-.43-.07-.63-.17-.58-.29-1.23-.47-1.92-.47h-.29c-2.48 0-4.47 2.14-4.22 4.67.21 2.2 2.19 3.82 4.41 3.82h.1c.79 0 1.53-.22 2.16-.6Z" fill="url(#b)"/></g><g filter="url(#c)"><path d="M1.758 15.856c0 7.72 6.28 14 14 14s14-6.28 14-14-6.28-14-14-14-14 6.28-14 14Zm3 0c0-6.07 4.93-11 11-11 6.06 0 11 4.93 11 11s-4.93 11-11 11-11-4.94-11-11Z" fill="url(#d)"/></g><g filter="url(#e)"><path d="M19.233 10.406c-1.68-.712-5.6-1.228-7.836 2.414-2.795 4.552 2.369 10.677 7.836 7.317" stroke="url(#f)" stroke-width=".75" stroke-linecap="round"/></g><defs><linearGradient id="b" x1="14.767" y1="8.866" x2="14.767" y2="22.626" gradientUnits="userSpaceOnUse"><stop stop-color="#564B61"/><stop offset="1" stop-color="#3B2C49"/></linearGradient><linearGradient id="d" x1="15.446" y1="2.668" x2="15.758" y2="29.856" gradientUnits="userSpaceOnUse"><stop stop-color="#5F4F70"/><stop offset="1" stop-color="#474050"/></linearGradient><linearGradient id="f" x1="15.04" y1="9.897" x2="15.04" y2="20.981" gradientUnits="userSpaceOnUse"><stop stop-color="#635A6C"/><stop offset="1" stop-color="#646169"/></linearGradient><filter id="a" x="9.072" y="8.366" width="11.891" height="14.26" filterUnits="userSpaceOnUse" color-interpolation-filters="sRGB"><feFlood flood-opacity="0" result="BackgroundImageFix"/><feBlend in="SourceGraphic" in2="BackgroundImageFix" result="shape"/><feColorMatrix in="SourceAlpha" values="0 0 0 0 0 0 0 0 0 0 0 0 0 0 0 0 0 0 127 0" result="hardAlpha"/><feOffset dx=".5"/><feGaussianBlur stdDeviation=".375"/><feComposite in2="hardAlpha" operator="arithmetic" k2="-1" k3="1"/><feColorMatrix values="0 0 0 0 0.223529 0 0 0 0 0.215686 0 0 0 0 0.239216 0 0 0 1 0"/><feBlend in2="shape" result="effect1_innerShadow_18590_2133"/><feColorMatrix in="SourceAlpha" values="0 0 0 0 0 0 0 0 0 0 0 0 0 0 0 0 0 0 127 0" result="hardAlpha"/><feOffset dy="-.5"/><feGaussianBlur stdDeviation=".375"/><feComposite in2="hardAlpha" operator="arithmetic" k2="-1" k3="1"/><feColorMatrix values="0 0 0 0 0.223529 0 0 0 0 0.215686 0 0 0 0 0.239216 0 0 0 1 0"/><feBlend in2="effect1_innerShadow_18590_2133" result="effect2_innerShadow_18590_2133"/></filter><filter id="c" x="1.108" y="1.356" width="29.3" height="29.15" filterUnits="userSpaceOnUse" color-interpolation-filters="sRGB"><feFlood flood-opacity="0" result="BackgroundImageFix"/><feBlend in="SourceGraphic" in2="BackgroundImageFix" result="shape"/><feColorMatrix in="SourceAlpha" values="0 0 0 0 0 0 0 0 0 0 0 0 0 0 0 0 0 0 127 0" result="hardAlpha"/><feOffset dx="-.65" dy=".65"/><feGaussianBlur stdDeviation=".375"/><feComposite in2="hardAlpha" operator="arithmetic" k2="-1" k3="1"/><feColorMatrix values="0 0 0 0 0.486275 0 0 0 0 0.439216 0 0 0 0 0.537255 0 0 0 1 0"/><feBlend in2="shape" result="effect1_innerShadow_18590_2133"/><feColorMatrix in="SourceAlpha" values="0 0 0 0 0 0 0 0 0 0 0 0 0 0 0 0 0 0 127 0" result="hardAlpha"/><feOffset dy="-.5"/><feGaussianBlur stdDeviation=".375"/><feComposite in2="hardAlpha" operator="arithmetic" k2="-1" k3="1"/><feColorMatrix values="0 0 0 0 0.207843 0 0 0 0 0.113725 0 0 0 0 0.286275 0 0 0 1 0"/><feBlend in2="effect1_innerShadow_18590_2133" result="effect2_innerShadow_18590_2133"/><feColorMatrix in="SourceAlpha" values="0 0 0 0 0 0 0 0 0 0 0 0 0 0 0 0 0 0 127 0" result="hardAlpha"/><feOffset dy=".5"/><feGaussianBlur stdDeviation=".375"/><feComposite in2="hardAlpha" operator="arithmetic" k2="-1" k3="1"/><feColorMatrix values="0 0 0 0 0.298039 0 0 0 0 0.247059 0 0 0 0 0.34902 0 0 0 1 0"/><feBlend in2="effect2_innerShadow_18590_2133" result="effect3_innerShadow_18590_2133"/><feColorMatrix in="SourceAlpha" values="0 0 0 0 0 0 0 0 0 0 0 0 0 0 0 0 0 0 127 0" result="hardAlpha"/><feOffset dx=".65"/><feGaussianBlur stdDeviation=".5"/><feComposite in2="hardAlpha" operator="arithmetic" k2="-1" k3="1"/><feColorMatrix values="0 0 0 0 0.176471 0 0 0 0 0.156863 0 0 0 0 0.196078 0 0 0 1 0"/><feBlend in2="effect3_innerShadow_18590_2133" result="effect4_innerShadow_18590_2133"/></filter><filter id="e" x="9.588" y="8.872" width="10.671" height="13.257" filterUnits="userSpaceOnUse" color-interpolation-filters="sRGB"><feFlood flood-opacity="0" result="BackgroundImageFix"/><feBlend in="SourceGraphic" in2="BackgroundImageFix" result="shape"/><feGaussianBlur stdDeviation=".325" result="effect1_foregroundBlur_18590_2133"/></filter></defs></svg>
